packages/core/src/svgs/axs.svg

<svg width="24" height="24" viewBox="0 0 24 24" fill="none" xmlns="http://www.w3.org/2000/svg">
<g clip-path="url(#clip0_31_6500)">
<path d="M0 0H24V24H0V0Z" fill="url(#paint0_linear_31_6500)"/>
<path d="M0 0H24V24H0V0Z" fill="url(#paint1_linear_31_6500)"/>
<path d="M5.26285 7.55578C5.75999 6.91721 9.47571 8.94864 11.3657 10.7058C11.46 10.7915 11.4514 10.9415 11.3529 11.0229L10.7529 11.5244C10.7163 11.5544 10.6709 11.5716 10.6236 11.5732C10.5763 11.5747 10.5298 11.5606 10.4914 11.5329L9.25714 10.6458L7.78285 12.2144C7.63714 12.3644 7.37571 12.6815 7.19571 12.5529C7.06702 12.4418 6.97633 12.2932 6.93637 12.128C6.8964 11.9627 6.90916 11.7891 6.97285 11.6315C7.20428 11.0958 8.43428 9.97293 8.43428 9.97293C7.81714 9.48007 6.54857 9.01721 6.32571 10.5858C6.18 11.6058 6.21428 15.7929 7.99714 14.7858C9.71142 13.8129 16.5471 6.24007 17.9143 6.90007C19.2814 7.55578 19.7571 14.7858 18.7329 16.0972C18.3986 16.5258 16.17 16.2515 12.6257 13.2601C12.6035 13.2409 12.5854 13.2174 12.5726 13.191C12.5598 13.1645 12.5526 13.1358 12.5514 13.1064C12.5502 13.0771 12.555 13.0478 12.5656 13.0204C12.5761 12.993 12.5922 12.9681 12.6129 12.9472L13.2129 12.3601C13.2943 12.2786 13.4271 12.2744 13.5129 12.3558C14.3186 13.0586 17.2543 15.3129 17.5714 13.8001C17.7814 12.7886 17.8029 8.3015 16.7786 8.6315C16.2214 8.8115 15.2357 9.60864 14.4986 10.2386C12.9 11.6101 7.25571 17.8115 5.94428 17.0829C4.63285 16.3586 4.31571 8.76864 5.25857 7.55578H5.26285Z" fill="white"/>
</g>
<defs>
<linearGradient id="paint0_linear_31_6500" x1="12" y1="0" x2="12" y2="24" gradientUnits="userSpaceOnUse">
<stop stop-color="#00D2F7"/>
<stop offset="1" stop-color="#004CDC"/>
</linearGradient>
<linearGradient id="paint1_linear_31_6500" x1="24" y1="12" x2="0" y2="12" gradientUnits="userSpaceOnUse">
<stop stop-color="#8476F4"/>
<stop offset="0.48" stop-color="#0083EC" stop-opacity="0"/>
<stop offset="1" stop-color="#8763EF"/>
</linearGradient>
<clipPath id="clip0_31_6500">
<rect width="24" height="24" fill="white"/>
</clipPath>
</defs>
</svg>

<svg xmlns="http://www.w3.org/2000/svg" width="24" height="24" fill="none" viewBox="0 0 24 24"><g clip-path="url(#a)"><path fill="url(#b)" d="M0 0h24v24H0z"/><path fill="url(#c)" d="M0 0h24v24H0z"/><path fill="#fff" d="M5.263 7.556c.497-.639 4.213 1.393 6.103 3.15a.21.21 0 0 1-.013.317l-.6.501a.215.215 0 0 1-.262.009l-1.234-.887-1.474 1.568c-.146.15-.407.467-.587.339a.81.81 0 0 1-.223-.921c.231-.536 1.461-1.66 1.461-1.66-.617-.492-1.885-.955-2.108.614-.146 1.02-.112 5.207 1.671 4.2 1.714-.973 8.55-8.546 9.917-7.886 1.367.656 1.843 7.886.819 9.197-.334.429-2.563.154-6.107-2.837a.22.22 0 0 1-.06-.24.2.2 0 0 1 .047-.073l.6-.587a.215.215 0 0 1 .3-.004c.806.703 3.741 2.957 4.058 1.444.21-1.011.232-5.498-.792-5.168-.558.18-1.543.977-2.28 1.607-1.599 1.371-7.243 7.572-8.555 6.844-1.311-.724-1.628-8.314-.685-9.527z"/></g><defs><linearGradient id="b" x1="12" x2="12" y1="0" y2="24" gradientUnits="userSpaceOnUse"><stop stop-color="#00D2F7"/><stop offset="1" stop-color="#004CDC"/></linearGradient><linearGradient id="c" x1="24" x2="0" y1="12" y2="12" gradientUnits="userSpaceOnUse"><stop stop-color="#8476F4"/><stop offset=".48" stop-color="#0083EC" stop-opacity="0"/><stop offset="1" stop-color="#8763EF"/></linearGradient><clipPath id="a"><path fill="#fff" d="M0 0h24v24H0z"/></clipPath></defs></svg>
